icons/ArrowLeft_filled.svg

<svg width="24" height="24" viewBox="0 0 24 24" fill="none" xmlns="http://www.w3.org/2000/svg">
<path fill-rule="evenodd" clip-rule="evenodd" d="M4.11612,12.8839c-0.48816,-0.4882 -0.48816,-1.2796 0,-1.7678l5.99998,-5.99999c0.4882,-0.48816 1.2796,-0.48816 1.7678,0c0.4881,0.48815 0.4881,1.27961 0,1.76777l-3.86613,3.86612h10.98223c0.6904,0 1.25,0.5596 1.25,1.25c0,0.6903 -0.5596,1.25 -1.25,1.25h-10.98223l3.86613,3.8661c0.4881,0.4882 0.4881,1.2796 0,1.7678c-0.4882,0.4881 -1.2796,0.4881 -1.7678,0z" fill="#002B51"/>
</svg>

<svg width="24" height="24" viewBox="0 0 24 24" fill="none" xmlns="http://www.w3.org/2000/svg">
<path fill-rule="evenodd" clip-rule="evenodd" d="M4.11612 12.8839C3.62796 12.3957 3.62796 11.6043 4.11612 11.1161L10.1161 5.11611C10.6043 4.62795 11.3957 4.62795 11.8839 5.11611C12.372 5.60426 12.372 6.39572 11.8839 6.88388L8.01777 10.75H19C19.6904 10.75 20.25 11.3096 20.25 12C20.25 12.6903 19.6904 13.25 19 13.25H8.01777L11.8839 17.1161C12.372 17.6043 12.372 18.3957 11.8839 18.8839C11.3957 19.372 10.6043 19.372 10.1161 18.8839L4.11612 12.8839Z" fill="#002B51"/>
</svg>
